!!!!SEGMENT: pl-cz--i-155--017_anonim--landler-10.krn
!!!cenid: 18xx:2526
!!!COM: Anonim
!!!COM-rismID: pe30004985
!!!CDT:
!!!CNT:
!!!OTL: Ländler 10
!!!PDT:
!!!AGN: Secular
!!!YEC: Copyright 2022 Narodowy Instytut Fryderyka Chopina (https://polishscores.org)
!!!YEM: License CC-BY-4.0 (https://creativecommons.org/licenses/by/4.0)
!!!SMS-siglum: PL-CZ
!!!SMS-shelfmark: I-155
!!!SMS-shelfwork: 017 W
!!!SMS-variant:
!!!SMS-altvar:
!!!NIFC-rismSourceID: 1001012506
!!!NIFC-rismChildID: 1001012547
!!!NIFC-islandoraID: pl-cz:814
!!!URL-pdf-islandora: https://repozytorium.nifc.pl/islandora/object/pl-cz%3A814/datastream/PDF/view
!!!URL-scan: https://polish.musicsources.pl/pl/lokalizacje/galeria/rekopisy/557 @EN{Scan on Polish Music Sources Website} @PL{Skany w portalu Dziedzictwo Muzyki Polskiej w otwartym dostępie}
!!!IIIF:
!!!ONB-nifc: UWAGA: 10 krótkich Landler numerowanych na pięcioliniach (nr 1-10, odpowiednio 008-017). m.in skan 0026. Uwaga: 5 partii
!!!AIN: 2 clars 2 cor 1 fagot
!!!key:
**kern	**kern	**kern	**kern	**kern
*part5	*part4	*part3	*part2	*part1
*staff5	*staff4	*staff3	*staff2	*staff1
*Icor	*Icor	*Ifagot	*Iclars	*Iclars
*I"Corno Secondo	*I"Corno Primo	*I"Fagotto	*I"Clarinetto 2do	*I"Clarinetto Primo
*I'cor 2	*I'cor 1	*I'fg	*I'cl 2	*I'cl 1
*clefG2	*clefG2	*clefF4	*clefG2	*clefG2
*ITrd4c7	*ITrd4c7	*	*ITrd1c2	*ITrd1c2
*k[b-]	*k[b-]	*k[b-]	*k[b-]	*k[b-]
*F:	*F:	*F:	*F:	*F:
*M3/4	*M3/4	*M3/4	*M3/4	*M3/4
*>[A,A,B,B]	*	*	*	*
*>A	*	*	*	*
!LO:TX:t=P:problem=brak partii w skanach	!LO:TX:t=P:problem=brak partii w skanach	!LO:TX:t=P:problem=brak partii w skanach	!	!LO:TX:t=P:problem=all\right&colon; global
4ryy	4ryy	4ryy	8e/L	8cc\L
.	.	.	8f/	8dd\
8ryy	8ryy	8ryy	8g/J	8ee\J
=1	=1	=1	=1	=1
!	!	!	!LO:TX:t=P:problem=all\right&colon; global	!
2.ryy	2.ryy	2.ryy	8a\L	8ff\L
.	.	.	8cc\	8aa\
.	.	.	8f\	8cc\
.	.	.	8cc\J	8aa\J
.	.	.	4a\	4ff\
=2	=2	=2	=2	=2
2.ryy	2.ryy	2.ryy	8a\L	8ff\L
.	.	.	8cc\	8aa\
.	.	.	8f\	8cc\
.	.	.	8cc\J	8aa\J
.	.	.	4a\	4ff\
=3	=3	=3	=3	=3
2.ryy	2.ryy	2.ryy	8cc\L	8ee\L
.	.	.	8ee\	8gg\
.	.	.	8g\	8cc\
.	.	.	8gg\J	8bb-\J
.	.	.	4ee\	4gg\
=4	=4	=4	=4	=4
2.ryy	2.ryy	2.ryy	8cc\L	8ee\L
.	.	.	8ee\	8gg\
.	.	.	8g\	8cc\
.	.	.	8gg\J	8bb-\J
.	.	.	4ee\	4gg\
=5	=5	=5	=5	=5
2.ryy	2.ryy	2.ryy	8a\L	8ff\L
.	.	.	8cc\	8aa\
.	.	.	8f\	8cc\
.	.	.	8cc\J	8aa\J
.	.	.	4a\	4ff\
=6	=6	=6	=6	=6
2.ryy	2.ryy	2.ryy	8a\L	8ff\L
.	.	.	8cc\	8aa\
.	.	.	8f\	8cc\
.	.	.	8cc\J	8aa\J
.	.	.	4a\	4ff\
=7	=7	=7	=7	=7
2.ryy	2.ryy	2.ryy	8cc\L	8ee\L
.	.	.	8ee\	8gg\
.	.	.	8g\	8cc\
.	.	.	8ee\	8bb-\
.	.	.	8cc\	8aa\
.	.	.	8b-\J	8gg\J
=8	=8	=8	=8	=8
4ryy	4ryy	4ryy	4a\	4ff\
8ryy	8ryy	8ryy	8r	8r
!	!	!	!LO:LB:g=original	!LO:LB:g=original
=9:|!|:	=9:|!|:	=9:|!|:	=9:|!|:	=9:|!|:
*>B	*	*	*	*
4ryy	4ryy	4ryy	4a\	4cc\
=10	=10	=10	=10	=10
2.ryy	2.ryy	2.ryy	8b-\L	8dd\L
.	.	.	8dd\	8ff\
.	.	.	8ff\	8bb-\
.	.	.	8b-\	8dd\
.	.	.	8dd\	8ff\
.	.	.	8ff\J	8bb-\J
=11	=11	=11	=11	=11
2.ryy	2.ryy	2.ryy	8a\L	8cc\L
.	.	.	8cc\	8ff\
.	.	.	8ff\	8aa\
.	.	.	8a\	8cc\
.	.	.	8cc\	8ff\
.	.	.	8ff\J	8aa\J
=12	=12	=12	=12	=12
2.ryy	2.ryy	2.ryy	4g\	8b-\L
.	.	.	.	8ee\
.	.	.	4b-\	8gg\
.	.	.	.	8b-\
.	.	.	8cc\L	8ee\
.	.	.	8b-\J	8gg\J
=13	=13	=13	=13	=13
2.ryy	2.ryy	2.ryy	4a\	8a\L
.	.	.	.	8cc\
.	.	.	4cc\	8ff\
.	.	.	.	8gg\
.	.	.	8cc\L	8aa\
.	.	.	8a\J	8ff\J
=14	=14	=14	=14	=14
2.ryy	2.ryy	2.ryy	8b-\L	8dd\L
.	.	.	8dd\	8ff\
.	.	.	8ff\	8bb-\
.	.	.	8b-\	8dd\
.	.	.	8dd\	8ff\
.	.	.	8ff\J	8bb-\J
=15	=15	=15	=15	=15
2.ryy	2.ryy	2.ryy	8a\L	8cc\L
.	.	.	8cc\	8ff\
.	.	.	8ff\	8aa\
.	.	.	8a\	8cc\
.	.	.	8cc\	8ff\
.	.	.	8ff\J	8aa\J
=16	=16	=16	=16	=16
*	*	*	*2\right	*
*	*	*	*tremolo	*
2.ryy	2.ryy	2.ryy	8b-\L	8b-\L
.	.	.	8cc\	8ee\
.	.	.	8b-\	8gg\
.	.	.	8cc\	8b-\
.	.	.	8b-\	8ee\
.	.	.	8cc\J	8gg\J
*	*	*	*Xtremolo	*
=17	=17	=17	=17	=17
*	*	*	*	*2\right
2ryy	2ryy	2ryy	2a\	2ff\
==	==	==	==	==
*-	*-	*-	*-	*-
!!!system-decoration: [(s1,s2,s3,s4,s5)]
!!!ENC: Marcin Jachim
!!!END: 2021-06-16
!!!EED: Leszek Kubiak
!!!EEV: 2021-06-22
